dist/logos/Lizee.svg

<svg xmlns="http://www.w3.org/2000/svg" width="655" height="223" viewBox="0 0 655 223" fill="none"><g clip-path="url(#clip0_16_204)"><path d="M33.3719 137.782C52.6855 151.304 78.0084 158.75 104.671 158.75V118.11C70.5589 118.11 4.91385 100.005 4.91385 79.375C4.91385 58.7449 70.5589 40.6438 104.671 40.6438V0C78.0084 0 52.6855 7.44612 33.3719 20.9717C12.1623 35.8204 0 57.107 0 79.375C0 101.643 12.159 122.933 33.3719 137.782Z" fill="#B4D2C1"/><path d="M175.97 85.0258C156.657 71.5036 131.334 64.0575 104.671 64.0575V104.695C138.783 104.695 204.428 122.799 204.428 143.429C204.428 164.059 138.783 182.16 104.671 182.16V222.804C131.33 222.804 156.657 215.358 175.97 201.836C197.18 186.987 209.342 165.7 209.342 143.432C209.342 121.164 197.183 99.8745 175.97 85.0258Z" fill="#B4D2C1"/><path d="M590.631 118.775C593.548 106.454 601.98 98.9964 613.329 98.9964C624.678 98.9964 632.133 106.454 634.564 118.775H590.633H590.631ZM614.948 173.728C635.211 173.728 649.64 162.542 654.016 144.061H635.374C632.457 152.654 624.999 157.519 615.111 157.519C600.521 157.519 591.12 147.305 589.822 132.23H654.342V127.689C653.855 99.8072 637.644 82.7873 613.329 82.7873C589.014 82.7873 570.692 100.294 570.692 128.665C570.692 154.926 588.688 173.73 614.948 173.73M496.612 118.777C499.529 106.457 507.959 98.9988 519.306 98.9988C530.652 98.9988 538.11 106.457 540.543 118.777H496.612ZM520.927 173.73C541.193 173.73 555.619 162.545 559.997 144.064H541.353C538.436 152.656 530.978 157.521 521.09 157.521C506.5 157.521 497.099 147.307 495.801 132.232H560.321V127.691C559.834 99.8096 543.623 82.7896 519.308 82.7896C494.993 82.7896 476.675 100.297 476.675 128.668C476.675 154.928 494.669 173.733 520.93 173.733M465.166 171.3V154.278H418.316L464.516 102.89V85.3828H398.54V102.242H443.118L397.081 153.791V171.298H465.168L465.166 171.3ZM380.87 85.3852H361.741V171.3H380.87V85.3852ZM371.306 73.8731C378.44 73.8731 383.626 68.3629 383.626 61.3918C383.626 54.4207 378.44 49.0713 371.306 49.0713C364.171 49.0713 358.987 54.4184 358.987 61.3918C358.987 68.3653 364.334 73.8731 371.306 73.8731ZM346.667 171.3V153.793H288.794V57.8271H269.342V171.303H346.667V171.3Z" fill="white"/></g><defs><clipPath id="clip0_16_204"><rect width="654.342" height="222.804" fill="white"/></clipPath></defs></svg>

<?xml version="1.0" encoding="UTF-8"?>
<svg id="Layer_1" data-name="Layer 1" xmlns="http://www.w3.org/2000/svg" xmlns:xlink="http://www.w3.org/1999/xlink" viewBox="0 0 654.34 222.8">
  <defs>
    <style>
      .cls-1, .cls-2, .cls-3 {
        stroke-width: 0px;
      }

      .cls-2 {
        fill: none;
      }

      .cls-4 {
        clip-path: url(#clippath);
      }

      .cls-3 {
        fill: #b4d2c1;
      }
    </style>
    <clipPath id="clippath">
      <rect class="cls-2" width="654.34" height="222.8"/>
    </clipPath>
  </defs>
  <g class="cls-4">
    <g>
      <path class="cls-3" d="M33.37,137.78c19.31,13.52,44.64,20.97,71.3,20.97v-40.64c-34.11,0-99.76-18.11-99.76-38.74s65.65-38.73,99.76-38.73V0c-26.66,0-51.99,7.45-71.3,20.97C12.16,35.82,0,57.11,0,79.38s12.16,43.56,33.37,58.41Z"/>
      <path class="cls-3" d="M175.97,85.03c-19.31-13.52-44.64-20.97-71.3-20.97v40.64c34.11,0,99.76,18.1,99.76,38.73s-65.64,38.73-99.76,38.73v40.64c26.66,0,51.99-7.45,71.3-20.97,21.21-14.85,33.37-36.14,33.37-58.4s-12.16-43.56-33.37-58.41Z"/>
      <path class="cls-1" d="M590.63,118.78c2.92-12.32,11.35-19.78,22.7-19.78s18.8,7.46,21.24,19.78h-43.93ZM614.95,173.73c20.26,0,34.69-11.19,39.07-29.67h-18.64c-2.92,8.59-10.38,13.46-20.26,13.46-14.59,0-23.99-10.21-25.29-25.29h64.52v-4.54c-.49-27.88-16.7-44.9-41.01-44.9s-42.64,17.51-42.64,45.88c0,26.26,18,45.07,44.26,45.07M496.61,118.78c2.92-12.32,11.35-19.78,22.69-19.78s18.8,7.46,21.24,19.78h-43.93ZM520.93,173.73c20.27,0,34.69-11.18,39.07-29.67h-18.64c-2.92,8.59-10.38,13.46-20.26,13.46-14.59,0-23.99-10.21-25.29-25.29h64.52v-4.54c-.49-27.88-16.7-44.9-41.01-44.9s-42.63,17.51-42.63,45.88c0,26.26,17.99,45.07,44.26,45.07M465.17,171.3v-17.02h-46.85l46.2-51.39v-17.51h-65.98v16.86h44.58l-46.04,51.55v17.51h68.09,0ZM380.87,85.39h-19.13v85.91h19.13v-85.91ZM371.31,73.87c7.13,0,12.32-5.51,12.32-12.48s-5.19-12.32-12.32-12.32-12.32,5.35-12.32,12.32,5.35,12.48,12.32,12.48ZM346.67,171.3v-17.51h-57.87V57.83h-19.45v113.48h77.32Z"/>
    </g>
  </g>
</svg>
